X: 20351
T: John Cahill's
R: jig
M: 6/8
K: Dmixolydian
C3|:DAc BAG|AFD D2E|CE/F/G cAG|AdD dde|
c3 BAG|AFD D2E|CEc BAG|AFD D3:|
|:EAc e/f/ge|fdd d2e|f/g/ag ecA|dBG G2A|
EAc e/f/ge|fdd de/f/g|ecA dBG|ABA A3:|
|:c2e dcA|G2A GFE|DED FEF|GFG AAB|
[1 c2e dcA|G2A GFE|FDD DAG|F3 GAB:|
[2 c2e dcD|B2c BAG|DED BAG|EDC D3||

